X: 10042
T: The REEL OF TULLOCH
R: reel
B: "Edinburgh Repository of Music" v.1 p.4 #2
F: http://digital.nls.uk/special-collections-of-printed-music/pageturner.cfm?id=87776133
Z: 2015 John Chambers <jc:trillian.mit.edu>
M: C|
L: 1/8
K: A
f !segno!|:\
Te2 Ac/d/ ecAa | Te2 AB/c/ dB=GB |\
{B}e2 Ac/d/ eAce | dE .c.d/.e/ dB=GB :|\
|:\
TcA cd/e/ c>AAB |
TcA cd/e/ dB=GB |\
[1 cA cd/e/ TcATcA | BE cd/e/ dB=GB :|\
[2 TcA cd/e/ TcA cd/e/ | BE cd/e/ dB=GB !segno!|]

%%sep 2 1 500
%%sep 1 1 500

